assets/images/sponsors-logos/featurespace.svg

<svg xmlns="http://www.w3.org/2000/svg" viewBox="70 68 702 267" preserveAspectRatio="xMinYMin" width="114pt">
  <path d="M118.78 82.86V69H70.24v70.69H86V112h31.15V98.13H86V82.86zM192.73 125.74v-14.66h31.66V97.62h-31.66V83.06h35.2V69H177v70.69h52v-13.95zM319.12 69h-15.26l-30.54 70.69h16.79l6.56-15.28h29.63l6.58 15.28h16.79zm-16.49 41.57L311.54 90l8.79 20.54zM392.08 69v13.66h20v57h15.78v-57h20V69zM543 68.3v39c0 5.65333-1.3 10.11667-3.9 13.39-2.5222 3.23717-6.4494 5.06116-10.55 4.9-4.1224.15745-8.0722-1.66323-10.63-4.9-2.61333-3.24667-3.92-7.69667-3.92-13.35v-39h-15.81v39.55c0 10.18 2.85 18.03333 8.55 23.56 5.7 5.52667 12.96333 8.28667 21.79 8.28 8.82 0 16.06333-2.74667 21.73-8.24s8.49667-13.36 8.49-23.6V68.3zM650 114.41c8.9533-3.33333 13.4333-10.64667 13.44-21.94 0-8.22-2.3333-14.19-7-17.91-4.6667-3.72-12.5267-5.57333-23.58-5.56h-26.78v70.69h15.77v-22.55h10.93l15.66 22.54h19.42zm-5.58-13.56c-2 1.76-5.62 2.63-11 2.63h-11.57V82.56h11.82c5.07 0 8.59.7 10.63 2.12 2.04 1.42 3 4 3 7.83s-.96 6.59-2.91 8.34zM735.19 125.74v-14.66h31.66V97.62h-31.66V83.06h35.2V69h-51v70.67h52.08v-13.93zM518.83 321v-14.71h31.66v-13.45h-31.66v-14.56H554v-14.05h-51v70.67h52.08V321zM226 270.54c-4.94667-4.2-12.85-6.30333-23.71-6.31h-25v70.67h15.77v-19.71h9.42c10.44667 0 18.21333-2.02333 23.3-6.07 5.08667-4.04667 7.65-10.42 7.69-19.12 0-8.76-2.49-15.24667-7.47-19.46zm-11.57 27.82c-1.88667 2.12-5.46 3.18-10.72 3.18h-10.6v-23.77h9c5.18667 0 9.00667.86333 11.46 2.59 2.45333 1.72667 3.68333 4.62667 3.69 8.7.02 4.07-.92 7.17-2.8 9.3zM320.936 264.23h-15.262L275.13 334.9h16.7922l6.56086-15.27568h29.63388L334.6978 334.9H351.49zm-16.49216 41.55824l8.91116-20.56418 8.79116 20.53419zM424.78 320.15c-5.43704.07336-10.66403-2.09702-14.45-6-4-4-6-9.27667-6-15.83 0-6.55333 2.10667-11.78 6.32-15.68 4.12623-3.83984 9.58464-5.9235 15.22-5.81 7.41333 0 13.61667 3.10333 18.61 9.31l9.81-11.12c-7.8-8.81333-17.49667-13.22-29.09-13.22-9.8466-.2121-19.3569 3.58482-26.35 10.52-7.17333 7.01333-10.76 15.75667-10.76 26.23s3.52333 19.14 10.57 26c7.04 6.87333 16.00333 10.31 26.89 10.31 10.88667 0 20.34333-4.51333 28.37-13.54L443.8 310.9c-4.4937 5.95026-11.5648 9.38915-19.02 9.25zM119 299.1c-3.71962-3.1096-8.0697-5.37506-12.75-6.64-.93-.28-1.87-.55-2.85-.79-6.71333-1.64667-10.99333-3.07667-12.84-4.29-1.74224-1.02248-2.80312-2.90002-2.78-4.92-.07792-1.90413.74441-3.734 2.22-4.94 1.79002-1.3332 3.99156-1.99507 6.22-1.87 6.22418.09 12.26905 2.09797 17.31 5.75l1.51-2.29 6.28-9.51c-3.17657-2.3284-6.69506-4.15006-10.43-5.4-4.55354-1.58476-9.3386-2.40254-14.16-2.42-7.22 0-13.24 1.82-18.06 5.46-4.82 3.64-7.23 8.81667-7.23 15.53 0 6.7 1.91 11.63 5.72 14.75 3.15218 2.43307 6.7105 4.2884 10.51 5.48 2.48498.87 5.01537 1.60443 7.58 2.2.78.19 1.51.39 2.21.58 3.96 1.07333 6.69 2.14333 8.19 3.21 1.68611 1.11965 2.67924 3.0266 2.63 5.05.0627 1.9906-.86644 3.8826-2.48 5.05-2.00245 1.3457-4.39179 1.99574-6.8 1.85-3.47079-.06108-6.88532-.8874-10-2.42-2.29305-1.08458-4.47644-2.38725-6.52-3.89-.88-.61-1.76-1.29-2.66-2l-9.4 11.6c8.44667 7.12667 17.86 10.69 28.24 10.69 7.76 0 14.01333-1.97333 18.76-5.92 4.65599-3.73883 7.29426-9.4409 7.13-15.41.01333-6.34667-1.83667-11.17667-5.55-14.49z"/>
</svg>

<?xml version="1.0" encoding="UTF-8" standalone="no"?>
<!DOCTYPE svg PUBLIC "-//W3C//DTD SVG 1.1//EN" "http://www.w3.org/Graphics/SVG/1.1/DTD/svg11.dtd">
<svg xmlns="http://www.w3.org/2000/svg" xmlns:xl="http://www.w3.org/1999/xlink" version="1.1" viewBox="70 68 702 267" preserveAspectRatio="xMinYMin" width="702pt" height="267pt" xmlns:dc="http://purl.org/dc/elements/1.1/">
  <metadata> Produced by OmniGraffle 7.5 
    <dc:date>2017-12-02 16:08:52 +0000</dc:date>
  </metadata>
  <defs/>
  <g>
    <title>Canvas 1</title>
    <g>
      <title>Layer 1</title>
      <path d="M 118.78 82.86 L 118.78 69 L 70.24 69 L 70.24 139.69 L 86 139.69 L 86 112 L 117.15 112 L 117.15 98.13 L 86 98.13 L 86 82.86 Z" fill="black"/>
      <path d="M 192.73 125.74 L 192.73 111.08 L 224.39 111.08 L 224.39 97.62 L 192.73 97.62 L 192.73 83.06 L 227.93 83.06 L 227.93 69 L 177 69 L 177 139.69 L 229 139.69 L 229 125.74 Z" fill="black"/>
      <path d="M 319.12 69 L 303.86 69 L 273.32 139.69 L 290.11 139.69 L 296.67 124.41 L 326.3 124.41 L 332.88 139.69 L 349.67 139.69 Z M 302.63 110.57 L 311.54 90 L 320.33 110.54 Z" fill="black"/>
      <path d="M 392.08 69 L 392.08 82.66 L 412.08 82.66 L 412.08 139.66 L 427.86 139.66 L 427.86 82.66 L 447.86 82.66 L 447.86 69 Z" fill="black"/>
      <path d="M 543 68.3 L 543 107.3 C 543 112.95333 541.7 117.41667 539.1 120.69 C 536.5778 123.92717 532.6506 125.75116 528.55 125.59 C 524.4276 125.74745 520.4778 123.92677 517.92 120.69 C 515.30667 117.44333 514 112.99333 514 107.34 L 514 68.34 L 498.19 68.34 L 498.19 107.89 C 498.19 118.07 501.04 125.92333 506.74 131.45 C 512.44 136.97667 519.70333 139.73667 528.53 139.73 C 537.35 139.73 544.59333 136.98333 550.26 131.49 C 555.92667 125.99667 558.75667 118.13 558.75 107.89 L 558.75 68.3 Z" fill="black"/>
      <path d="M 650 114.41 C 658.9533 111.07667 663.4333 103.76333 663.44 92.47 C 663.44 84.25 661.1067 78.28 656.44 74.56 C 651.7733 70.84 643.9133 68.98667 632.86 69 L 606.08 69 L 606.08 139.69 L 621.85 139.69 L 621.85 117.14 L 632.78 117.14 L 648.44 139.68 L 667.86 139.68 Z M 644.42 100.85 C 642.42 102.61 638.8 103.48 633.42 103.48 L 621.85 103.48 L 621.85 82.56 L 633.67 82.56 C 638.74 82.56 642.26 83.26 644.3 84.68 C 646.34 86.1 647.3 88.68 647.3 92.51 C 647.3 96.34 646.34 99.1 644.39 100.85 Z" fill="black"/>
      <path d="M 735.19 125.74 L 735.19 111.08 L 766.85 111.08 L 766.85 97.62 L 735.19 97.62 L 735.19 83.06 L 770.39 83.06 L 770.39 69 L 719.39 69 L 719.39 139.67 L 771.47 139.67 L 771.47 125.74 Z" fill="black"/>
      <path d="M 518.83 321 L 518.83 306.29 L 550.49 306.29 L 550.49 292.84 L 518.83 292.84 L 518.83 278.28 L 554 278.28 L 554 264.23 L 503 264.23 L 503 334.9 L 555.08 334.9 L 555.08 321 Z" fill="black"/>
      <path d="M 226 270.54 C 221.05333 266.34 213.15 264.23667 202.29 264.23 L 177.29 264.23 L 177.29 334.9 L 193.06 334.9 L 193.06 315.19 L 202.48 315.19 C 212.92667 315.19 220.69333 313.16667 225.78 309.12 C 230.86667 305.07333 233.43 298.7 233.47 290 C 233.47 281.24 230.98 274.75333 226 270.54 Z M 214.43 298.36 C 212.54333 300.48 208.97 301.54 203.71 301.54 L 193.11 301.54 L 193.11 277.77 L 202.11 277.77 C 207.29667 277.77 211.11667 278.63333 213.57 280.36 C 216.02333 282.08667 217.25333 284.98667 217.26 289.06 C 217.28 293.13 216.34 296.23 214.46 298.36 Z" fill="black"/>
      <path d="M 320.936 264.23 L 305.674 264.23 L 275.13 334.9 L 291.9222 334.9 L 298.48306 319.62432 L 328.11694 319.62432 L 334.6978 334.9 L 351.49 334.9 Z M 304.44384 305.78824 L 313.355 285.22406 L 322.14616 305.75825 Z" fill="black"/>
      <path d="M 424.78 320.15 C 419.34296 320.22336 414.11597 318.05298 410.33 314.15 C 406.33 310.15 404.33 304.87333 404.33 298.32 C 404.33 291.76667 406.43667 286.54 410.65 282.64 C 414.77623 278.80016 420.23464 276.7165 425.87 276.83 C 433.28333 276.83 439.48667 279.93333 444.48 286.14 L 454.29 275.02 C 446.49 266.20667 436.79333 261.8 425.2 261.8 C 415.3534 261.5879 405.8431 265.38482 398.85 272.32 C 391.67667 279.33333 388.09 288.07667 388.09 298.55 C 388.09 309.02333 391.61333 317.69 398.66 324.55 C 405.7 331.42333 414.66333 334.86 425.55 334.86 C 436.43667 334.86 445.89333 330.34667 453.92 321.32 L 443.8 310.9 C 439.3063 316.85026 432.2352 320.28915 424.78 320.15 Z" fill="black"/>
      <path d="M 119 299.1 C 115.28038 295.9904 110.9303 293.72494 106.25 292.46 C 105.32 292.18 104.38 291.91 103.4 291.67 C 96.68667 290.02333 92.40667 288.59333 90.56 287.38 C 88.81776 286.35752 87.75688 284.47998 87.78 282.46 C 87.70208 280.55587 88.52441 278.726 90 277.52 C 91.79002 276.1868 93.99156 275.52493 96.22 275.65 C 102.44418 275.74 108.48905 277.74797 113.53 281.4 L 115.04 279.11 L 121.32 269.6 C 118.14343 267.2716 114.62494 265.44994 110.89 264.2 C 106.33646 262.61524 101.5514 261.79746 96.73 261.78 C 89.51 261.78 83.49 263.6 78.67 267.24 C 73.85 270.88 71.44 276.05667 71.44 282.77 C 71.44 289.47 73.35 294.4 77.16 297.52 C 80.31218 299.95307 83.8705 301.8084 87.67 303 C 90.15498 303.87 92.68537 304.60443 95.25 305.2 C 96.03 305.39 96.76 305.59 97.46 305.78 C 101.42 306.85333 104.15 307.92333 105.65 308.99 C 107.33611 310.10965 108.32924 312.0166 108.28 314.04 C 108.3427 316.0306 107.41356 317.9226 105.8 319.09 C 103.79755 320.4357 101.40821 321.08574 99 320.94 C 95.52921 320.87892 92.11468 320.0526 89 318.52 C 86.70695 317.43542 84.52356 316.13275 82.48 314.63 C 81.6 314.02 80.72 313.34 79.82 312.63 L 70.42 324.23 C 78.86667 331.35667 88.28 334.92 98.66 334.92 C 106.42 334.92 112.67333 332.94667 117.42 329 C 122.07599 325.26117 124.71426 319.5591 124.55 313.59 C 124.56333 307.24333 122.71333 302.41333 119 299.1 Z" fill="black"/>
    </g>
  </g>
</svg>
